X:1

T:White Breasted Boy, The

M:3/4

L:1/8

S:Stanford/Petrie (1905), No. 621

Z:AK/Fiddler’s Companion

K:B_

{F}f>d | B2 (AB).G.E | {D}F4 GA | B3d ec | {d}f4 f>d | B2 (AB).G.E |

D<F F2 ~G>A | B<d dB c>A | B4 || F2 | B2 Bcde | f4 gf | fd Bc d{f}e |

{d}c4 f>d | B2 (AB) .G.E | D<F F2 G>A | {B}d3B {G}c>A | B4 ||

 

WHITE CALF, THE. Irish, Air (9/8 time). D Mixolydian. Standard tuning. AB. Source for notated version: "Copied from a MS. book lent to me by Surgeon‑Major‑General King of Dublin (about 1885), who copied them 40 years previously from an old MS. book in Cork" (Joyce). Joyce (Old Irish Folk Music and Song), 1909; No. 368, pg. 169.

